img/tour.svg

<svg width="22" height="21" viewBox="0 0 22 21" fill="none" xmlns="http://www.w3.org/2000/svg">
<path d="M9.23001 20.0318C4.45797 19.6046 0.859393 17.4678 0.859393 15.0614C0.859393 14.4988 1.05379 13.9426 1.43721 13.408C1.57871 13.2107 1.539 12.9321 1.34847 12.7855C1.15795 12.639 0.888827 12.6802 0.747285 12.8774C0.251416 13.5687 0 14.3035 0 15.0614C0 16.5283 0.968321 17.9278 2.72664 19.0021C4.38454 20.0152 6.6679 20.6958 9.15602 20.9185C9.16861 20.9196 9.18111 20.9202 9.19353 20.9202C9.41409 20.9202 9.60179 20.7452 9.62116 20.5135C9.64153 20.2686 9.46647 20.053 9.23001 20.0318Z" fill="#9FC460"/>
<path d="M11.1074 20.1099L11.0818 20.11C10.8445 20.1113 10.6531 20.3116 10.6544 20.5573C10.6557 20.8023 10.8478 20.9999 11.0841 20.9999C11.0849 20.9999 11.0857 20.9999 11.0864 20.9999L11.1074 20.9998C11.3447 20.9998 11.5371 20.8006 11.5371 20.5548C11.5371 20.3091 11.3447 20.1099 11.1074 20.1099Z" fill="#9FC460"/>
<path d="M21.427 13.139C21.6576 13.1309 21.8422 12.9354 21.8422 12.6947C21.8422 12.449 21.6498 12.2498 21.4125 12.2498H20.5469C20.3096 12.2498 20.1172 12.449 20.1172 12.6947V13.5911C20.1172 13.8369 20.3096 14.0361 20.5469 14.0361C20.6694 14.0361 20.7797 13.9828 20.8579 13.8976C21.0457 14.2792 21.1406 14.6692 21.1406 15.0616C21.1406 17.4685 17.5412 19.6054 12.768 20.0323C12.5316 20.0535 12.3565 20.2691 12.3769 20.5139C12.3962 20.7457 12.5839 20.9206 12.8045 20.9206C12.8169 20.9206 12.8294 20.9201 12.842 20.9189C15.3306 20.6964 17.6143 20.0159 19.2727 19.0028C21.0314 17.9283 22 16.5287 22 15.0616C22 14.3996 21.8073 13.7535 21.427 13.139Z" fill="#9FC460"/>
<path d="M11.0002 3.62695C10.7629 3.62695 10.5705 3.82621 10.5705 4.07193V5.04323C10.5705 5.28894 10.7629 5.48821 11.0002 5.48821C11.2375 5.48821 11.4299 5.28894 11.4299 5.04323V4.07193C11.4299 3.82621 11.2375 3.62695 11.0002 3.62695Z" fill="#9FC460"/>
<path d="M18.3945 4.35229L11.2148 0.0596381C11.0818 -0.0198794 10.918 -0.0198794 10.7851 0.0596381L3.60535 4.35229C3.4724 4.43177 3.3905 4.5787 3.3905 4.73764V13.3229C3.3905 13.4819 3.47236 13.6288 3.60535 13.7083L10.7851 18.0009C10.8515 18.0407 10.9257 18.0605 10.9999 18.0605C11.0741 18.0605 11.1483 18.0407 11.2148 18.0009L18.3945 13.7083C18.5274 13.6288 18.6093 13.4819 18.6093 13.3229V4.73764C18.6093 4.5787 18.5274 4.43177 18.3945 4.35229ZM10.5702 16.8448L4.67959 13.3229L5.08596 13.08C5.29148 12.957 5.36191 12.6849 5.24323 12.4721C5.12459 12.2593 4.86178 12.1863 4.65626 12.3092L4.24985 12.5522V5.50866L10.137 9.03239L9.39912 9.47354C9.1936 9.59644 9.12317 9.86855 9.24185 10.0814C9.32143 10.2241 9.46585 10.304 9.61436 10.304C9.68723 10.304 9.76114 10.2847 9.82882 10.2442L10.5702 9.801V16.8448ZM10.9999 6.94825C10.7626 6.94825 10.5702 7.14751 10.5702 7.39323V8.26374L4.67938 4.73778L10.5702 1.21573V1.7219C10.5702 1.96761 10.7626 2.16687 10.9999 2.16687C11.2372 2.16687 11.4296 1.96761 11.4296 1.7219V1.21573L17.3204 4.73778L11.4296 8.26374V7.39323C11.4296 7.14751 11.2372 6.94825 10.9999 6.94825ZM17.7499 12.5522L17.3435 12.3092C17.138 12.1864 16.8752 12.2593 16.7566 12.4721C16.6379 12.6849 16.7083 12.957 16.9138 13.08L17.3202 13.3229L11.4296 16.8448V9.801L12.171 10.2442C12.2387 10.2847 12.3125 10.304 12.3855 10.304C12.534 10.304 12.6784 10.2241 12.758 10.0814C12.8767 9.86855 12.8062 9.59644 12.6007 9.47354L11.8628 9.03239L17.7499 5.50866V12.5522Z" fill="#9FC460"/>
<path d="M15.3791 11.1342L14.5668 10.6485C14.3612 10.5257 14.0985 10.5986 13.9798 10.8114C13.8611 11.0242 13.9316 11.2964 14.1371 11.4192L14.9494 11.9049C15.0171 11.9453 15.0909 11.9646 15.1639 11.9646C15.3124 11.9646 15.4568 11.8848 15.5364 11.742C15.655 11.5292 15.5846 11.2571 15.3791 11.1342Z" fill="#9FC460"/>
<path d="M8.02074 10.8114C7.90206 10.5986 7.6393 10.5257 7.43378 10.6486L6.62148 11.1342C6.41596 11.2571 6.34553 11.5292 6.46421 11.7421C6.54379 11.8848 6.68821 11.9646 6.83671 11.9646C6.90959 11.9646 6.9835 11.9454 7.05118 11.9049L7.86347 11.4193C8.069 11.2964 8.13942 11.0243 8.02074 10.8114Z" fill="#9FC460"/>
</svg>

<svg width="22" height="21" fill="none" xmlns="http://www.w3.org/2000/svg"><path d="M9.23 20.032c-4.772-.427-8.37-2.564-8.37-4.97 0-.563.194-1.12.577-1.654a.455.455 0 00-.089-.622.42.42 0 00-.6.091C.25 13.57 0 14.303 0 15.061c0 1.467.968 2.867 2.727 3.941 1.658 1.013 3.94 1.694 6.429 1.917a.436.436 0 00.465-.405.44.44 0 00-.391-.482zm1.877.078h-.025a.438.438 0 00-.428.447.437.437 0 00.43.443h.023c.238 0 .43-.2.43-.445a.438.438 0 00-.43-.445zm10.32-6.971a.438.438 0 00.415-.444.438.438 0 00-.43-.445h-.865a.438.438 0 00-.43.445v.896c0 .246.193.445.43.445a.421.421 0 00.31-.138 2.6 2.6 0 01.284 1.164c0 2.406-3.6 4.543-8.373 4.97a.44.44 0 00-.391.482.436.436 0 00.465.405c2.489-.223 4.772-.903 6.43-1.916C21.033 17.928 22 16.529 22 15.062c0-.662-.193-1.308-.573-1.923zM11 3.627c-.237 0-.43.2-.43.445v.971c0 .246.193.445.43.445.238 0 .43-.2.43-.445v-.971a.438.438 0 00-.43-.445z" fill="#9FC460"/><path d="M18.395 4.352L11.215.06a.417.417 0 00-.43 0l-7.18 4.292a.448.448 0 00-.215.386v8.585c0 .159.082.306.215.385l7.18 4.293a.417.417 0 00.43 0l7.18-4.293a.448.448 0 00.214-.385V4.738a.448.448 0 00-.215-.386zM10.57 16.845l-5.89-3.522.406-.243a.454.454 0 00.157-.608.422.422 0 00-.587-.163l-.406.243V5.51l5.887 3.523-.738.442a.454.454 0 00-.157.607c.08.143.224.223.372.223.073 0 .147-.02.215-.06l.741-.443v7.044zM11 6.948c-.237 0-.43.2-.43.445v.87L4.68 4.739l5.89-3.522v.506c0 .246.193.445.43.445s.43-.2.43-.445v-.506l5.89 3.522-5.89 3.526v-.87a.438.438 0 00-.43-.446zm6.75 5.604l-.407-.243a.422.422 0 00-.586.163.454.454 0 00.157.608l.406.243-5.89 3.522V9.8l.741.443c.068.04.142.06.215.06.148 0 .292-.08.372-.223a.454.454 0 00-.157-.607l-.738-.442L17.75 5.51v7.043z" fill="#9FC460"/><path d="M15.38 11.134l-.813-.486a.422.422 0 00-.587.163.454.454 0 00.157.608l.812.486c.068.04.142.06.215.06.148 0 .293-.08.372-.223a.454.454 0 00-.157-.608zm-7.36-.323a.422.422 0 00-.586-.162l-.813.485a.454.454 0 00-.157.608.418.418 0 00.587.163l.812-.486a.454.454 0 00.158-.608z" fill="#9FC460"/></svg>
